X:1
T:He Took My Feet from the Miry Clay
T:He Took My Feet from the Miry Clay
T:Traditional Spiritual
T:Public Domain Courtesy of the Cyber Hymnal™
C:Traditional Spiritual
Z:Public Domain
Z:Courtesy of the Cyber Hymnal™
%%score ( 1 2 ) ( 3 4 )
L:1/8
Q:1/4=115
M:4/4
K:G
V:1 treble 
V:2 treble 
V:3 bass 
V:4 bass 
V:1
 G2 | G2 A2 x8 | A2 A[DB]- [DB]4 | G2 E[DG]- [DG]4 | G2 E [B,G]3 G2 | A2 A2 A2 x4 | %6
w: 1.~He|took my|feet from~the mir- *|y clay, Yes, *|He did! Yes, He|did! And placed|
w: 2.~O|my Lord|did just what *|He said, Yes, *|He did! Yes, He|did! He healed|
w: 3.~O|Je- sus|washed my sins *|a- way, Yes, *|He did! Yes, He|did! And made|
w: 4.~He|died on~the|cross to save *|my soul, Yes, *|He did! Yes, He|did! He ran-|
 A2 A[DB]- [DB]4 | G2 E[DG]- [DG]4 | G2 E[B,G]- [B,G]4 ||"^Refrain" DEGE [CG-]4 | GG G2 [EB]4 | %11
w: them on the *|rock to stay, *|Yes, He did! *|Yes, He did! * *||
w: the sick and~He *|raised the dead, *|Yes, He did! *|Yes, He did! I can|* tell the world|
w: me hap- py *|all the day, *|Yes, He did! *|Yes, He did! * *||
w: somed me and *|made me whole, *|Yes, He did! *|Yes, He did! * *||
 DEGE G2 G2- | G2 G2 (E D3) | BA G2 E2 D2 | [DG] [EG]3 [GB]4 | DE (GA) [GB]4 | [DFd]4 (BG) [FA]2 | %17
w: ||||||
w: a- bout this, I can tell|* the na- *|tions I’m blest, Tell them|that Je- sus|made me whole, * And|He brought * joy,|
w: ||||||
w: ||||||
 [DG]6 |] %18
w: |
w: joy|
w: |
w: |
V:2
 x2 | E8 (AA) (AA) | D3 x5 | E3 x5 | C3 x5 | E8 (AA) | D3 x5 | E3 x5 | C3 x5 || B,4 x4 | D4 x4 | %11
 D4 ^C4 | C4 C4 | D4 x4 | x8 | x8 | x4 G2 x2 | x6 |] %18
V:3
 z2 | [G,C]8 x4 | [F,C]3 [G,B,]- [G,B,]4 | [G,C]3 [G,B,]- [G,B,]4 | [C,E,]3 [G,,D,]3 z2 | %5
 [G,C]8 x2 | [F,C]3 [G,B,]- [G,B,]4 | [C,G,]3 [B,,G,]- [B,,G,]4 | [A,,E,]3 [G,,D,]- [G,,D,]4 || %9
 [G,,D,]4 [A,,E,]4 | [B,,F,]4 [C,G,]4 | [B,,G,]4 [^A,,E,]4 | [A,,E,]4 [D,F,]4 | B,4 C4 | B, C3 D4 | %15
 D,E, (G,A,) [G,B,]4 | [B,,B,]4 B,2 C2 | [G,B,]6 |] %18
V:4
 x2 | x12 | x8 | x8 | x8 | x10 | x8 | x8 | x8 || x8 | x8 | x8 | x8 | G,8 | G,8 | x8 | x4 D,4 | %17
 x6 |] %18

